; generated by Slic3r 1.2.9 on 2017-12-18 at 21:55:17

; external perimeters extrusion width = 0.40mm
; perimeters extrusion width = 0.67mm
; infill extrusion width = 0.67mm
; solid infill extrusion width = 0.67mm
; top infill extrusion width = 0.67mm

M107
M190 S65 ; set bed temperature
M104 S215 ; set temperature
G28 ; home all axes
G1 Z5 F5000 ; lift nozzle

M109 S215 ; wait for temperature to be reached
G21 ; set units to millimeters
G90 ; use absolute coordinates
M82 ; use absolute distances for extrusion
G92 E0
G1 Z0.200 F7800.000
G1 E-2.00000 F2400.00000
G92 E0
G1 X34.399 Y36.619 F7800.000
G1 E2.00000 F2400.00000
G1 X36.064 Y35.098 E2.06694 F600.000
G1 X37.358 Y34.184 E2.11399
G1 X39.246 Y33.177 E2.17751
G1 X40.565 Y32.652 E2.21966
G1 X42.596 Y32.098 E2.28219
G1 X43.781 Y31.892 E2.31787
G1 X45.877 Y31.730 E2.38031
G1 X46.367 Y31.712 E2.39485
G1 X113.633 Y31.712 E4.39208
G1 X114.123 Y31.730 E4.40662
G1 X116.219 Y31.892 E4.46906 F600.000
G1 X117.404 Y32.098 E4.50475
G1 X119.435 Y32.652 E4.56727
G1 X120.754 Y33.177 E4.60943
G1 X122.642 Y34.184 E4.67295
G1 X123.936 Y35.098 E4.71999
G1 X125.601 Y36.619 E4.78693
G1 X126.622 Y37.815 E4.83363
G1 X127.598 Y39.297 E4.88632
G1 X127.898 Y39.802 E4.90376
G1 X128.694 Y41.293 E4.95396
G1 X128.960 Y41.855 E4.97240
G1 X129.572 Y43.334 E5.01994
G1 X129.796 Y43.970 E5.03996
G1 X130.222 Y45.416 E5.08470
G1 X130.391 Y46.146 E5.10698
G1 X130.627 Y47.536 E5.14884
G1 X130.714 Y48.391 E5.17435
G1 X130.761 Y49.914 E5.21959
G1 X130.761 Y70.086 E5.81851
G1 X130.714 Y71.608 E5.86374
G1 X130.627 Y72.463 E5.88925
G1 X130.391 Y73.854 E5.93112
G1 X130.222 Y74.585 E5.95340
G1 X129.796 Y76.030 E5.99815
G1 X129.572 Y76.666 E6.01816
G1 X128.960 Y78.145 E6.06570
G1 X128.694 Y78.707 E6.08415
G1 X127.898 Y80.199 E6.13435
G1 X127.598 Y80.703 E6.15178
G1 X126.622 Y82.185 E6.20447
G1 X125.601 Y83.381 E6.25117
G1 X123.936 Y84.902 E6.31811
G1 X122.642 Y85.816 E6.36515
G1 X120.754 Y86.823 E6.42867
G1 X119.435 Y87.348 E6.47082
G1 X117.404 Y87.902 E6.53334
G1 X116.219 Y88.108 E6.56904
G1 X114.123 Y88.270 E6.63148
G1 X113.633 Y88.288 E6.64602
G1 X46.367 Y88.288 E8.64325
G1 X45.877 Y88.270 E8.65779
G1 X43.781 Y88.108 E8.72023
G1 X42.596 Y87.902 E8.75592
G1 X40.565 Y87.348 E8.81845
G1 X39.246 Y86.823 E8.86059
G1 X37.358 Y85.816 E8.92411
G1 X36.064 Y84.902 E8.97116
G1 X34.399 Y83.381 E9.03810
G1 X33.378 Y82.185 E9.08480
G1 X32.402 Y80.703 E9.13749
G1 X32.102 Y80.198 E9.15493
G1 X31.306 Y78.707 E9.20513
G1 X31.040 Y78.145 E9.22356
G1 X30.428 Y76.666 E9.27111
G1 X30.204 Y76.031 E9.29110
G1 X29.778 Y74.585 E9.33585
G1 X29.609 Y73.853 E9.35815
G1 X29.373 Y72.463 E9.40002
G1 X29.286 Y71.608 E9.42553
G1 X29.239 Y70.086 E9.47076
G1 X29.239 Y49.914 E10.06968
G1 X29.286 Y48.391 E10.11491
G1 X29.373 Y47.537 E10.14040
G1 X29.609 Y46.147 E10.18228
G1 X29.778 Y45.415 E10.20457
G1 X30.204 Y43.969 E10.24932
G1 X30.428 Y43.334 E10.26933
G1 X31.040 Y41.855 E10.31687
G1 X31.306 Y41.293 E10.33531
G1 X32.102 Y39.802 E10.38551
G1 X32.402 Y39.297 E10.40294
G1 X33.378 Y37.815 E10.45563
G1 X34.360 Y36.664 E10.50055
G1 E8.50055 F2400.00000
G92 E0
G1 X74.965 Y71.355 F7800.000
G1 E2.00000 F2400.00000
G1 X85.035 Y71.355 E2.29899 F600.000
G1 X84.701 Y72.475 E2.33369
G1 X84.218 Y73.393 E2.36450
G1 X83.526 Y74.058 E2.39300
G1 X82.770 Y74.697 E2.42239
G1 X81.699 Y75.318 E2.45914
G1 X80.840 Y75.611 E2.48608
G1 X79.999 Y75.675 E2.51112
G1 X79.153 Y75.605 E2.53633
G1 X78.311 Y75.331 E2.56263
G1 X77.238 Y74.725 E2.59922
G1 X76.394 Y74.133 E2.62982
G1 X75.770 Y73.390 E2.65863
G1 X75.299 Y72.474 E2.68921
G1 X74.982 Y71.412 E2.72211
G1 X74.926 Y70.956 F7800.000
G1 X42.641 Y61.729 F7800.000
G1 X42.641 Y58.271 E2.82477 F600.000
G1 X41.085 Y57.542 E2.87579
G1 X40.169 Y56.885 E2.90925
G1 X39.297 Y56.023 E2.94565
G1 X38.490 Y54.972 E2.98503
G1 X37.764 Y53.749 E3.02723
G1 X37.139 Y52.376 E3.07202
G1 X36.644 Y50.922 E3.11763
G1 X36.513 Y49.872 E3.14905
G1 X36.552 Y48.693 E3.18407
G1 X36.768 Y47.418 E3.22249
G1 X37.165 Y46.070 E3.26419
G1 X37.742 Y44.677 E3.30896
G1 X38.497 Y43.262 E3.35658
G1 X39.387 Y41.911 E3.40463
G1 X40.883 Y40.545 E3.46478
G1 X42.579 Y39.640 E3.52184
G1 X44.427 Y39.135 E3.57873
G1 X46.365 Y38.986 E3.63643
G1 X48.313 Y39.145 E3.69447
G1 X50.186 Y39.561 E3.75145
G1 X51.895 Y40.174 E3.80536
G1 X52.768 Y40.625 E3.83453
G1 X53.507 Y41.173 E3.86183
G1 X54.129 Y41.772 E3.88747
G1 X54.627 Y42.359 E3.91035
G1 X54.993 Y42.868 E3.92894
G1 X55.317 Y43.389 E3.94716
G1 X55.796 Y44.399 E3.98037
G1 X56.471 Y45.646 E4.02247
G1 X57.391 Y46.861 E4.06770
G1 X58.437 Y47.692 E4.10738
G1 X59.427 Y48.279 E4.14153
G1 X60.435 Y48.793 E4.17515
G1 X61.633 Y49.360 E4.21450
G1 X98.367 Y49.360 E5.30515
G1 X99.565 Y48.793 E5.34450
G1 X100.573 Y48.279 E5.37812
G1 X101.563 Y47.692 E5.41227
G1 X102.609 Y46.861 E5.45195
G1 X103.529 Y45.646 E5.49718
G1 X104.204 Y44.399 E5.53928
G1 X104.683 Y43.389 E5.57249
G1 X105.007 Y42.868 E5.59071
G1 X105.373 Y42.359 E5.60931
G1 X105.871 Y41.772 E5.63218
G1 X106.493 Y41.173 E5.65782
G1 X107.232 Y40.625 E5.68512
G1 X108.105 Y40.174 E5.71429
G1 X109.814 Y39.561 E5.76820
G1 X111.687 Y39.145 E5.82518
G1 X113.635 Y38.986 E5.88322
G1 X115.573 Y39.135 E5.94092
G1 X117.421 Y39.640 E5.99781
G1 X119.117 Y40.545 E6.05487
G1 X120.613 Y41.911 E6.11502
G1 X121.503 Y43.262 E6.16307
G1 X122.258 Y44.677 E6.21069
G1 X122.835 Y46.070 E6.25546
G1 X123.232 Y47.418 E6.29716
G1 X123.449 Y48.693 E6.33559
G1 X123.487 Y49.872 E6.37060
G1 X123.356 Y50.922 E6.40202
G1 X122.861 Y52.376 E6.44763
G1 X122.236 Y53.749 E6.49242
G1 X121.510 Y54.972 E6.53463
G1 X120.702 Y56.023 E6.57400
G1 X119.831 Y56.885 E6.61040
G1 X118.915 Y57.542 E6.64386
G1 X117.359 Y58.271 E6.69487
G1 X117.359 Y61.729 E6.79754
G1 X118.915 Y62.458 E6.84855
G1 X119.831 Y63.115 E6.88201
G1 X120.702 Y63.977 E6.91841
G1 X121.510 Y65.028 E6.95778
G1 X122.236 Y66.251 E6.99999
G1 X122.861 Y67.623 E7.04478
G1 X123.356 Y69.078 E7.09039
G1 X123.487 Y70.128 E7.12181
G1 X123.449 Y71.307 E7.15682
G1 X123.232 Y72.582 E7.19525
G1 X122.835 Y73.930 E7.23695
G1 X122.258 Y75.323 E7.28172
G1 X121.503 Y76.738 E7.32933
G1 X120.613 Y78.089 E7.37738
G1 X119.117 Y79.455 E7.43754
G1 X117.421 Y80.360 E7.49460
G1 X115.573 Y80.865 E7.55149
G1 X113.635 Y81.014 E7.60919
G1 X111.687 Y80.855 E7.66723
G1 X109.814 Y80.439 E7.72421
G1 X108.105 Y79.826 E7.77812
G1 X107.232 Y79.374 E7.80729
G1 X106.493 Y78.827 E7.83458
G1 X105.871 Y78.228 E7.86023
G1 X105.373 Y77.641 E7.88310
G1 X105.007 Y77.132 E7.90169
G1 X104.683 Y76.611 E7.91992
G1 X104.204 Y75.600 E7.95314
G1 X103.529 Y74.354 E7.99523
G1 X102.609 Y73.139 E8.04046
G1 X101.563 Y72.308 E8.08014
G1 X100.573 Y71.721 E8.11429
G1 X99.565 Y71.207 E8.14791
G1 X98.367 Y70.640 E8.18725
G1 X61.633 Y70.640 E9.27791
G1 X60.435 Y71.207 E9.31726
G1 X59.427 Y71.721 E9.35087
G1 X58.437 Y72.308 E9.38503
G1 X57.391 Y73.139 E9.42471
G1 X56.471 Y74.354 E9.46994
G1 X55.796 Y75.601 E9.51203
G1 X55.317 Y76.611 E9.54525
G1 X54.993 Y77.132 E9.56347
G1 X54.627 Y77.641 E9.58206
G1 X54.129 Y78.228 E9.60493
G1 X53.507 Y78.827 E9.63058
G1 X52.768 Y79.374 E9.65788
G1 X51.895 Y79.826 E9.68705
G1 X50.186 Y80.439 E9.74096
G1 X48.313 Y80.855 E9.79794
G1 X46.365 Y81.014 E9.85598
G1 X44.427 Y80.865 E9.91368
G1 X42.579 Y80.360 E9.97057
G1 X40.883 Y79.455 E10.02763
G1 X39.387 Y78.089 E10.08778
G1 X38.497 Y76.738 E10.13583
G1 X37.742 Y75.323 E10.18345
G1 X37.165 Y73.930 E10.22822
G1 X36.768 Y72.582 E10.26992
G1 X36.551 Y71.307 E10.30834
G1 X36.513 Y70.128 E10.34336
G1 X36.644 Y69.078 E10.37478
G1 X37.139 Y67.623 E10.42039
G1 X37.764 Y66.251 E10.46518
G1 X38.490 Y65.028 E10.50738
G1 X39.297 Y63.977 E10.54676
G1 X40.169 Y63.115 E10.58316
G1 X41.085 Y62.458 E10.61662
G1 X42.586 Y61.754 E10.66585
G1 X42.284 Y61.502 F7800.000
G1 X42.284 Y58.498 E10.75504 F600.000
G1 X40.904 Y57.851 E10.80029
G1 X39.938 Y57.159 E10.83556
G1 X39.029 Y56.260 E10.87352
G1 X38.193 Y55.172 E10.91425
G1 X37.447 Y53.915 E10.95767
G1 X36.806 Y52.508 E11.00356
G1 X36.295 Y51.002 E11.05078
G1 X36.155 Y49.889 E11.08411
G1 X36.195 Y48.657 E11.12069
G1 X36.420 Y47.337 E11.16045
G1 X36.828 Y45.951 E11.20334
G1 X37.418 Y44.524 E11.24920
G1 X38.189 Y43.080 E11.29782
G1 X39.114 Y41.677 E11.34769
G1 X40.675 Y40.251 E11.41049
G1 X42.446 Y39.306 E11.47007
G1 X44.366 Y38.782 E11.52917
G1 X46.365 Y38.627 E11.58872
G1 X48.366 Y38.791 E11.64832
G1 X50.286 Y39.217 E11.70670
G1 X52.038 Y39.846 E11.76198
G1 X52.957 Y40.321 E11.79271
G1 X53.738 Y40.900 E11.82154
G1 X54.390 Y41.527 E11.84841
G1 X54.909 Y42.139 E11.87224
G1 X55.290 Y42.669 E11.89161
G1 X55.631 Y43.217 E11.91079
G1 X56.115 Y44.238 E11.94433
G1 X56.772 Y45.452 E11.98533
G1 X57.649 Y46.609 E12.02842
G1 X58.640 Y47.397 E12.06603
G1 X59.599 Y47.966 E12.09913
G1 X60.593 Y48.473 E12.13225
G1 X61.714 Y49.002 E12.16905
G1 X98.286 Y49.002 E13.25495
G1 X99.407 Y48.473 E13.29176
G1 X100.401 Y47.966 E13.32488
G1 X101.360 Y47.397 E13.35797
G1 X102.351 Y46.609 E13.39559
G1 X103.228 Y45.452 E13.43868
G1 X103.885 Y44.238 E13.47968
G1 X104.369 Y43.217 E13.51321
G1 X104.710 Y42.669 E13.53240
G1 X105.091 Y42.139 E13.55177
G1 X105.610 Y41.527 E13.57560
G1 X106.262 Y40.900 E13.60247
G1 X107.043 Y40.321 E13.63130
G1 X107.962 Y39.846 E13.66202
G1 X109.714 Y39.217 E13.71730
G1 X111.634 Y38.791 E13.77568
G1 X113.634 Y38.627 E13.83529
G1 X115.634 Y38.782 E13.89484
G1 X117.554 Y39.306 E13.95393
G1 X119.325 Y40.251 E14.01352
G1 X120.886 Y41.677 E14.07632
G1 X121.810 Y43.080 E14.12618
G1 X122.582 Y44.524 E14.17481
G1 X123.172 Y45.951 E14.22066
G1 X123.580 Y47.337 E14.26355
G1 X123.805 Y48.657 E14.30332
G1 X123.845 Y49.889 E14.33989
G1 X123.705 Y51.002 E14.37322
G1 X123.194 Y52.508 E14.42045
G1 X122.553 Y53.915 E14.46634
G1 X121.807 Y55.172 E14.50975
G1 X120.971 Y56.260 E14.55049
G1 X120.062 Y57.159 E14.58844
G1 X119.096 Y57.851 E14.62372
G1 X117.716 Y58.498 E14.66897
G1 X117.716 Y61.502 E14.75815
G1 X119.096 Y62.149 E14.80340
G1 X120.062 Y62.841 E14.83868
G1 X120.971 Y63.740 E14.87663
G1 X121.807 Y64.828 E14.91737
G1 X122.553 Y66.085 E14.96078
G1 X123.194 Y67.492 E15.00667
G1 X123.705 Y68.998 E15.05390
G1 X123.845 Y70.111 E15.08723
G1 X123.805 Y71.343 E15.12380
G1 X123.580 Y72.663 E15.16357
G1 X123.172 Y74.049 E15.20646
G1 X122.582 Y75.476 E15.25231
G1 X121.810 Y76.920 E15.30094
G1 X120.886 Y78.323 E15.35080
G1 X119.325 Y79.749 E15.41360
G1 X117.554 Y80.694 E15.47319
G1 X115.634 Y81.218 E15.53228
G1 X113.634 Y81.373 E15.59183
G1 X111.633 Y81.209 E15.65144
G1 X109.714 Y80.783 E15.70982
G1 X107.962 Y80.154 E15.76510
G1 X107.043 Y79.678 E15.79582
G1 X106.262 Y79.100 E15.82465
G1 X105.610 Y78.473 E15.85152
G1 X105.091 Y77.861 E15.87535
G1 X104.710 Y77.331 E15.89472
G1 X104.369 Y76.783 E15.91391
G1 X103.885 Y75.762 E15.94744
G1 X103.228 Y74.548 E15.98844
G1 X102.351 Y73.391 E16.03153
G1 X101.360 Y72.603 E16.06915
G1 X100.401 Y72.034 E16.10224
G1 X99.407 Y71.527 E16.13536
G1 X98.286 Y70.997 E16.17217
G1 X85.790 Y70.997 E16.54322
G1 X85.355 Y72.264 E16.58297
G1 X85.155 Y72.200 E16.58920
G1 X85.514 Y70.997 E16.62646
G1 X74.486 Y70.997 E16.95390
G1 X74.845 Y72.200 E16.99115
G1 X74.645 Y72.264 E16.99739
G1 X74.210 Y70.997 E17.03714
G1 X61.714 Y70.997 E17.40819
G1 X60.593 Y71.527 E17.44499
G1 X59.599 Y72.034 E17.47811
G1 X58.640 Y72.603 E17.51120
G1 X57.649 Y73.391 E17.54882
G1 X56.772 Y74.548 E17.59191
G1 X56.115 Y75.762 E17.63291
G1 X55.631 Y76.783 E17.66645
G1 X55.290 Y77.331 E17.68563
G1 X54.909 Y77.861 E17.70500
G1 X54.390 Y78.473 E17.72883
G1 X53.738 Y79.100 E17.75570
G1 X52.957 Y79.678 E17.78453
G1 X52.038 Y80.154 E17.81526
G1 X50.286 Y80.783 E17.87054
G1 X48.366 Y81.209 E17.92892
G1 X46.365 Y81.373 E17.98852
G1 X44.366 Y81.218 E18.04807
G1 X42.446 Y80.694 E18.10717
G1 X40.675 Y79.749 E18.16675
G1 X39.114 Y78.323 E18.22955
G1 X38.189 Y76.920 E18.27942
G1 X37.419 Y75.476 E18.32804
G1 X36.828 Y74.049 E18.37390
G1 X36.420 Y72.663 E18.41678
G1 X36.195 Y71.343 E18.45655
G1 X36.155 Y70.111 E18.49312
G1 X36.295 Y68.998 E18.52646
G1 X36.806 Y67.492 E18.57368
G1 X37.447 Y66.085 E18.61957
G1 X38.193 Y64.828 E18.66299
G1 X39.029 Y63.740 E18.70372
G1 X39.938 Y62.841 E18.74168
G1 X40.904 Y62.149 E18.77695
G1 X42.229 Y61.527 E18.82042
G1 X41.927 Y61.275 F7800.000
G1 X41.927 Y58.725 E18.89613 F600.000
G1 X40.723 Y58.160 E18.93562
G1 X39.707 Y57.433 E18.97270
G1 X38.761 Y56.497 E19.01222
G1 X37.897 Y55.373 E19.05431
G1 X37.130 Y54.080 E19.09893
G1 X36.474 Y52.640 E19.14593
G1 X35.945 Y51.083 E19.19476
G1 X35.797 Y49.905 E19.23001
G1 X35.839 Y48.621 E19.26814
G1 X36.071 Y47.256 E19.30925
G1 X36.491 Y45.832 E19.35333
G1 X37.095 Y44.372 E19.40027
G1 X37.882 Y42.897 E19.44990
G1 X38.840 Y41.444 E19.50157
G1 X40.468 Y39.957 E19.56703
G1 X42.313 Y38.972 E19.62914
G1 X44.304 Y38.428 E19.69043
G1 X46.366 Y38.269 E19.75183
G1 X48.420 Y38.437 E19.81301
G1 X50.385 Y38.873 E19.87278
G1 X52.181 Y39.518 E19.92944
G1 X53.147 Y40.017 E19.96171
G1 X53.969 Y40.626 E19.99208
G1 X54.650 Y41.282 E20.02017
G1 X55.190 Y41.919 E20.04496
G1 X55.587 Y42.470 E20.06511
G1 X55.945 Y43.046 E20.08525
G1 X56.434 Y44.076 E20.11911
G1 X57.073 Y45.258 E20.15902
G1 X57.906 Y46.358 E20.19996
G1 X58.844 Y47.102 E20.23552
G1 X59.772 Y47.653 E20.26755
G1 X60.750 Y48.152 E20.30018
G1 X61.794 Y48.645 E20.33444
G1 X98.206 Y48.645 E21.41558
G1 X99.250 Y48.152 E21.44985
G1 X100.228 Y47.653 E21.48247
G1 X101.156 Y47.102 E21.51451
G1 X102.094 Y46.358 E21.55006
G1 X102.927 Y45.258 E21.59100
G1 X103.566 Y44.076 E21.63091
G1 X104.055 Y43.046 E21.66477
G1 X104.413 Y42.470 E21.68492
G1 X104.810 Y41.919 E21.70506
G1 X105.350 Y41.282 E21.72985
G1 X106.031 Y40.626 E21.75794
G1 X106.853 Y40.017 E21.78831
G1 X107.819 Y39.518 E21.82058
G1 X109.615 Y38.873 E21.87724
G1 X111.580 Y38.437 E21.93702
G1 X113.634 Y38.269 E21.99819
G1 X115.696 Y38.428 E22.05959
G1 X117.687 Y38.972 E22.12088
G1 X119.532 Y39.957 E22.18299
G1 X121.160 Y41.444 E22.24845
G1 X122.118 Y42.897 E22.30012
G1 X122.905 Y44.372 E22.34976
G1 X123.509 Y45.832 E22.39669
G1 X123.929 Y47.256 E22.44077
G1 X124.161 Y48.621 E22.48188
G1 X124.203 Y49.905 E22.52001
G1 X124.055 Y51.083 E22.55526
G1 X123.526 Y52.640 E22.60409
G1 X122.870 Y54.080 E22.65109
G1 X122.103 Y55.373 E22.69571
G1 X121.239 Y56.497 E22.73780
G1 X120.293 Y57.433 E22.77732
G1 X119.277 Y58.160 E22.81440
G1 X118.073 Y58.725 E22.85389
G1 X118.073 Y61.275 E22.92960
G1 X119.277 Y61.840 E22.96909
G1 X120.293 Y62.567 E23.00617
G1 X121.239 Y63.503 E23.04569
G1 X122.103 Y64.627 E23.08778
G1 X122.870 Y65.920 E23.13241
G1 X123.526 Y67.360 E23.17940
G1 X124.055 Y68.917 E23.22823
G1 X124.203 Y70.095 E23.26348
G1 X124.161 Y71.378 E23.30161
G1 X123.929 Y72.744 E23.34272
G1 X123.509 Y74.168 E23.38680
G1 X122.905 Y75.628 E23.43374
G1 X122.118 Y77.103 E23.48337
G1 X121.160 Y78.556 E23.53504
G1 X119.532 Y80.043 E23.60050
G1 X117.687 Y81.028 E23.66261
G1 X115.696 Y81.572 E23.72390
G1 X113.634 Y81.731 E23.78530
G1 X111.580 Y81.563 E23.84648
G1 X109.615 Y81.127 E23.90625
G1 X107.819 Y80.482 E23.96291
G1 X106.853 Y79.982 E23.99519
G1 X106.031 Y79.374 E24.02555
G1 X105.350 Y78.718 E24.05364
G1 X104.810 Y78.081 E24.07843
G1 X104.413 Y77.530 E24.09857
G1 X104.055 Y76.954 E24.11872
G1 X103.566 Y75.924 E24.15258
G1 X102.927 Y74.742 E24.19249
G1 X102.094 Y73.642 E24.23343
G1 X101.156 Y72.897 E24.26899
G1 X100.228 Y72.347 E24.30102
G1 X99.250 Y71.848 E24.33365
G1 X98.206 Y71.355 E24.36791
G1 X86.045 Y71.355 E24.72901
G1 X85.580 Y72.708 E24.77149
G1 X84.885 Y73.845 E24.81107
G1 X84.012 Y74.725 E24.84789
G1 X83.038 Y75.382 E24.88275
G1 X81.986 Y75.900 E24.91756
G1 X81.032 Y76.201 E24.94729
G1 X80.000 Y76.312 E24.97810
G1 X79.008 Y76.207 E25.00770
G1 X78.039 Y75.922 E25.03769
G1 X76.963 Y75.382 E25.07345
G1 X75.988 Y74.725 E25.10834
G1 X75.115 Y73.845 E25.14516
G1 X74.420 Y72.708 E25.18473
G1 X73.955 Y71.355 E25.22721
G1 X61.794 Y71.355 E25.58831
G1 X60.750 Y71.848 E25.62258
G1 X59.772 Y72.347 E25.65520
G1 X58.844 Y72.897 E25.68724
G1 X57.906 Y73.642 E25.72279
G1 X57.073 Y74.742 E25.76373
G1 X56.434 Y75.924 E25.80364
G1 X55.945 Y76.954 E25.83750
G1 X55.587 Y77.530 E25.85765
G1 X55.190 Y78.081 E25.87779
G1 X54.650 Y78.718 E25.90258
G1 X53.969 Y79.374 E25.93067
G1 X53.147 Y79.982 E25.96104
